dist/img/svg/i-slider-top-1.svg

<svg width="28" height="28" viewBox="0 0 28 28" fill="none" xmlns="http://www.w3.org/2000/svg">
<path d="M24.409 8.88417C24.3495 8.74183 24.2632 8.6135 24.1558 8.50733L19.4903 3.84183C19.2733 3.6225 18.977 3.5 18.6667 3.5H4.66667C4.515 3.5 4.36333 3.53033 4.221 3.58983C3.93517 3.70767 3.70767 3.93517 3.58983 4.221C3.53033 4.36333 3.5 4.515 3.5 4.66667V18.6667C3.5 18.977 3.6225 19.2733 3.84183 19.4915L8.50733 24.157C8.61467 24.2643 8.74183 24.3507 8.88417 24.4102C9.02533 24.4685 9.177 24.5 9.33333 24.5H23.3333C23.9785 24.5 24.5 23.9785 24.5 23.3333V9.33333C24.5 9.177 24.4685 9.02533 24.409 8.88417ZM20.517 8.16667H9.81633L7.483 5.83333H18.1837L20.517 8.16667ZM5.83333 7.483L8.16667 9.81633V20.517L5.83333 18.1837V7.483Z" fill="white"/>
</svg>

<svg width="28" height="28" viewBox="0 0 28 28" fill="none" xmlns="http://www.w3.org/2000/svg"><path d="M24.409 8.884a1.158 1.158 0 00-.253-.377L19.49 3.842a1.157 1.157 0 00-.823-.342h-14A1.162 1.162 0 003.5 4.667v14c0 .31.123.606.342.824l4.665 4.666a1.172 1.172 0 00.826.343h14c.646 0 1.167-.521 1.167-1.167v-14c0-.156-.032-.308-.091-.449zm-3.892-.717h-10.7L7.482 5.833h10.7l2.334 2.334zM5.833 7.483l2.334 2.333v10.701l-2.334-2.333V7.483z" fill="#fff"/></svg>
